X: 1167
T: İstanbul Biricik Dünya Güzeli
C: Sadettin Kaynak
O: Turkey
F: http://compmusic.upf.edu/node/140
N: nihavent--sarki--duyek--istanbul_biricik--sadettin_kaynak
N: makam= nihavent
N: form= sarki
N: usul= duyek = 8/4
M: 8/4
L: 1/16
K: C _B _e  
Q: 1/4=144
%%MIDI tuningsystem comma53
z2 d2 ^c2 d2 e4 d4  | b16  | z2 d2 ^c2 d2 e4 d4  | g16  | \
w:  ARANAĞME   |   |   |   | 
(3f2g2f2 (3e2f2e2 (3d2e2d2 c4  | 
w:   | 
(3B2c2B2 (3A2B2A2 G4 z4  | z2 d6 e4 d4  | \
w:   |  Ýs tan bul   | 
z4 g2 a2 b8  | b2 a6 g4 ^fg ag  | 
w:  bi ri cik   |  *  dün ya  gü *  ze  | 
g6 ed e2 f2 g4  | f2 g6 _a4 f2 e2  | \
w:  li   SAZ  |  O nun  göz be  | 
e2 d6 d2 e2 f2 g2  | z2 d2 e2 f2 e2 d6  | 
w:  be ği   |  ma *  vi  Bo ğaz  | 
d6 gg f2 e2 d2 c2  | z2 d4 e2 f4 z4  | \
w:  dır   SAZ  |  Her  ya nı   | 
z2 g4 f2 e4 d4  | z2 c6 B4 A2 BA  | 
w:  Cen *  net ten   |  da ha  be ze  | 
A6 de d2 c2 B2 A2  | z4 G2 A2 B4 A4  | \
w:  li   SAZ  |  Bo ğa zın  ben  | 
B2 A6 d4 z4  | A2 B6 A4 BA G^F  | 
w:  ze ri   |  ci han da  az  | 
z8  | G8  | d2 g2 d2 g2  | d g d g z d g z  | \
w:  |  dır    |  SAZ  |   | 
z ^f g a b a g b  | 
w:   | 
a3 ^f d4  | z d e f g f e g  | e3 d c4  | \
w:   |   |   | 
z A B c B4  | z A G B A4  | 
w:   |   | 
z ^F G A B A G F  | G8  | d8  | g8  | ^f2 g2 a2 b2  | \
w:   |     |  Bül  |  bül  |  le ri  din mez   | 
z ^f2 g f e d ^c  | 
w:  gül le ri  *  sol  | 
d3 g ^f e d2  | z2 ^c d e2 d2  | e2 e d e2 d2  | \
w:  maz   SAZ  |  O ra da  her   |  mev *  *  sim   | 
^c2 B2 A G ^F G  | 
w:  ba har dır  *  yaz  | 
A3 B c B c2  | z2 c2 c2 c2  | c2 B A d4  | \
w:  dır   SAZ  |  Dün ya da   |  bu  ka *  dar   | 
c2 B2 A2 G2  | ^F3 e d ^c d2  | 
w:  gü zel lik_ ol  |  maz   SAZ  | 
z2 d2 d2 d2  | e2 ^f2 g4  | a2 c'2 b2 a2  | g8  | z16  | \
w:  Bo ğa zı   |  çıl gın ca   |  sev mek  de  az  |  dır    |  | 
z2 d4 e2 f4 z4  | z2 g4 f2 e4 d4  | 
w:  Her  ya nı   |  Cen *  net ten   | 
z2 c6 B4 A2 BA  | A6 de d2 c2 B2 A2  | \
w:  da ha  be ze  |  li   SAZ  | 
z4 G2 A2 B4 A4  | B2 A6 d4 z4  | 
w:  Bo ğa zın  ben  |  ze ri   | 
A2 B6 A4 BA G^F  | z8  | G8  | d2 g2 d2 g2  | \
w:  ci han da  az  |  |  dır    |  SAZ  | 
d g d g z d g z  | 
w:   | 
z ^f g a b a g b  | a3 ^f d4  | z d e f g f e g  | \
w:   |   |   | 
e3 d c4  | 
w:   | 
z A B c B4  | z A G B A4  | z ^F G A B A G F  | G8  | d8  | g8  | 
w:   |   |   |     |  Bül  |  bül  | 
^f2 g2 a2 b2  | z ^f2 g f e d ^c  | d3 g ^f e d2  | \
w:  le ri  din mez   |  gül le ri  *  sol  |  maz   SAZ  | 
z2 ^c d e2 d2  | 
w:  O ra da  her   | 
e2 e d e2 d2  | ^c2 B2 A G ^F G  | A3 B c B c2  | \
w:  mev *  *  sim   |  ba har dır  *  yaz  |  dır   SAZ  | 
z2 c2 c2 c2  | c2 B A d4  | 
w:  Dün ya da   |  bu  ka *  dar   | 
c2 B2 A2 G2  | ^F3 e d ^c d2  | z2 d2 d2 d2  | \
w:  gü zel lik_ ol  |  maz   SAZ  |  Bo ğa zı   | 
e2 ^f2 g4  | a2 c'2 b2 a2  | g8  | 
w:  çıl gın ca   |  sev mek  de  az  |  dır    | 
|


